X:1
T: John O'Reilly
C:
R:Jig
Q:180
K:F
M:6/8
L:1/16
|:A2|C2F2F2 F2E2F2|B2G2F2 E2F2G2|A2c2A2 B2G2A2|G2F2F2 F4C2|
C2F2F2 F2E2F2|B2G2F2 E2F2G2|A2c2A2 B2G2c2|A2F2F2 F4:|
K:Bb
|:F2|F2e2e2 e4e2|e2c2c2 B2G2G2|F2f2f2 f2e2f2|g2e2c2 c2B2A2|
B2c2d2 e2d2e2|c2B2A2 G4G2|c2=B2c2 e2d2c2|B2G2F2 F4:|
